X:0282
T:Quick Step 40th. Regt.
M:6/8
L:1/8
Q:3/8=84
I: :: ::
Z:Jack Campin * www.campin.me.uk * 2009
K:D
A|d2d D2d|dfd D2d|dcd efg|fdf ecA|\
  d2d D2d|dfd D2d|dcd efg|fdc d2:|
z|f2f d2B|f2f d2d|efg fed|cdB A3 |\
  c2c A2E|c2c A2d|efg afd|ABc d2:|
<end>
<start>
